packages/sources/icons/src/vitamix/safari-fill.svg

<svg width="16" height="16" viewBox="0 0 16 16" xmlns="http://www.w3.org/2000/svg"><path d="M11.1333 4.53334L7.05725 7.05734L4.53325 11.1333L4.46392 11.064L3.52059 12.0067L3.99258 12.4787L4.93525 11.5353L4.86659 11.4667L8.94258 8.94334L11.4666 4.86668L11.5359 4.93601L12.4793 3.99334L12.0073 3.52134L11.0646 4.46468L11.1339 4.53401L11.1333 4.53334ZM7.99992 14.6667C4.31792 14.6667 1.33325 11.682 1.33325 8.00001C1.33325 4.31801 4.31792 1.33334 7.99992 1.33334C11.6819 1.33334 14.6666 4.31801 14.6666 8.00001C14.6666 11.682 11.6819 14.6667 7.99992 14.6667ZM7.66658 2.00001V3.33334H8.33325V2.00001H7.66658ZM7.66658 12.6667V14H8.33325V12.6667H7.66658ZM5.39592 2.58401L5.90592 3.81601L6.52192 3.56134L6.01192 2.32934L5.39592 2.58401ZM9.47792 12.4387L9.98792 13.6707L10.6039 13.416L10.0939 12.184L9.47792 12.4387ZM9.98792 2.32934L9.47792 3.56134L10.0939 3.81601L10.6039 2.58401L9.98792 2.32934ZM5.90658 12.184L5.39658 13.416L6.01259 13.6707L6.52259 12.4387L5.90658 12.184ZM13.9999 7.66668H12.6666V8.33334H13.9999V7.66668ZM3.33325 7.66668H1.99992V8.33334H3.33325V7.66668ZM13.6386 10.0767L12.4153 9.54734L12.1506 10.1593L13.3739 10.6887L13.6386 10.0767ZM3.84925 5.84068L2.62659 5.31134L2.36192 5.92334L3.58525 6.45268L3.84992 5.84068H3.84925ZM13.4159 5.39601L12.1839 5.90601L12.4386 6.52201L13.6706 6.01201L13.4159 5.39601ZM3.56125 9.47801L2.32925 9.98801L2.58392 10.604L3.81592 10.094L3.56125 9.47801ZM12.4786 12.0067L11.5353 11.064L11.0639 11.5353L12.0066 12.4787L12.4786 12.0067ZM4.93592 4.46468L3.99325 3.52134L3.52125 3.99334L4.46459 4.93601L4.93592 4.46468ZM7.54125 7.54134L9.94858 6.05134L8.45858 8.45801L7.54125 7.54134Z"/></svg>

<svg width="16" height="16" xmlns="http://www.w3.org/2000/svg"><path d="M11.133 4.533 7.057 7.057l-2.524 4.076-.07-.069-.942.943.472.472.942-.944-.068-.068 4.076-2.524 2.524-4.076.069.069.943-.943-.472-.472-.942.944.069.069ZM8 14.667A6.667 6.667 0 1 1 8 1.334a6.667 6.667 0 0 1 0 13.333ZM7.667 2v1.333h.666V2h-.666Zm0 10.667V14h.666v-1.333h-.666ZM5.396 2.584l.51 1.232.616-.255-.51-1.232-.616.255Zm4.082 9.855.51 1.232.616-.255-.51-1.232-.616.255Zm.51-10.11-.51 1.232.616.255.51-1.232-.616-.255Zm-4.081 9.855-.51 1.232.616.255.51-1.232-.616-.255ZM14 7.667h-1.333v.666H14v-.666Zm-10.667 0H2v.666h1.333v-.666Zm10.306 2.41-1.224-.53-.264.612 1.223.53.265-.612ZM3.849 5.84l-1.222-.53-.265.612 1.223.53.265-.612Zm9.567-.445-1.232.51.255.616 1.232-.51-.255-.616ZM3.56 9.478l-1.232.51.255.616 1.232-.51-.255-.616Zm8.918 2.529-.944-.943-.471.471.943.944.472-.472ZM4.936 4.465l-.943-.944-.472.472.944.943.47-.471ZM7.54 7.54l2.408-1.49-1.49 2.407-.918-.917Z"/></svg>
